X:1
T:Almost (Bilhorn)
T:Almost (Bilhorn)
T:Peter Philip Bilhorn
T:Peter Philip Bilhorn (1865-1936)
T:Public Domain Courtesy of the Cyber Hymnal™
C:Peter Philip Bilhorn
Z:Public Domain
Z:Courtesy of the Cyber Hymnal™
%%score ( 1 2 ) ( 3 4 )
L:1/8
Q:1/4=105
M:6/8
K:Ab
V:1 treble 
V:2 treble 
V:3 bass 
V:4 bass 
V:1
 [Ec]3 [CA]2 [DB] | [Ec][Fd][=D=B] [Ec]2 [CA] | [DB]3 [B,G]2 [CA] | [DB][Ec][DB] [CA]3 | %4
w: 1.~Al- most, but|still I re- sist- ed,|Al- most but|ne- ver be- lieved;|
w: 2.~Al- most at|one time I yield- ed,|Al- most at|one time was waved;|
w: 3.~Al- most, why|long- er re- fuse Him?|Al- most, O|lost one, be- lieve;|
 [Ec]3 [CA]2 [DB] | [Ec][_Ge][Fd] [Ec]2 !fermata![CA] |"^riten." [B,G][CA][DB] [Ec][CA][DB] | %7
w: Al- most, but|wait- ed and wait- ed,|Till the sweet Spir- it was|
w: Al- most, but|drift- ed and drift- ed,|Sa- tan thus held me en-|
w: Al- most, swing|o- pen thy heart’s door,|Je- sus the Sav- ior re-|
 [CA]3- [CA]2 z ||"^Refrain" [Ee]2 [GB]/[GB]/ [GB][Ac][Gd] | [Ec]3 [CA]3 | %10
w: grieved. *|||
w: slaved. *|Now is the time to re-|ceive Him,|
w: ceive. *|||
 [Ee]2 [GB]/[GB]/ [GB][Ac][Bd] | [Ac]3- [Ac]2 z | c2 A/A/ A[GB][_Gc] | [_Ge]3 !fermata![Fd]3 | %14
w: ||||
w: Now is the time to be|saved; *|Now, while the Spir- it is|plead- ing,|
w: ||||
 [Ec]2 [DB]/[CA]/ [B,G][CA]!fermata![DB] | [CA]6 |] %16
w: ||
w: Now, Je- sus wait- eth to|save.|
w: ||
V:2
 x6 | x6 | x6 | x6 | x6 | x6 | x6 | x6 || x6 | x6 | x6 | x6 | c2 A/A/ A x2 | x6 | x6 | x6 |] %16
V:3
 A,,6 | A,,6 | E,6 | E,3 A,,3 | A,,6 | A,,6 | E,6 | A,,3- A,,2 z || %8
 [A,C]2 [E,E]/[E,E]/ [E,D][E,C][E,B,] | A,3 A,3 | [G,B,]2 [E,D]/[E,D]/ [E,D][E,C][E,G,] | %11
 [A,,A,]3- [A,,A,]2 z | C2 A,/A,/ A,[A,B,][A,C] | [C,A,]3 [D,A,]3 | [E,A,]2 [E,G,]/[E,A,]/ E,E,E, | %15
 [A,,E,]6 |] %16
V:4
 x6 | x6 | x6 | x6 | x6 | x6 | x6 | x6 || x6 | A,3 A,3 | x6 | x6 | C2 A,/A,/ A, x2 | x6 | %14
 x3 E,E,E, | x6 |] %16

